X:1
T:Luffenham, LM
T:Luffenham, LM
T:George Alexander Macfarren (1813-1887)
T:Public Domain Courtesy of the Cyber Hymnal™
C:George Alexander Macfarren (1813-1887)
Z:Public Domain
Z:Courtesy of the Cyber Hymnal™
%%score ( 1 2 ) ( 3 4 )
L:1/8
Q:1/4=115
M:3/2
K:G
V:1 treble 
V:2 treble 
V:3 bass 
V:4 bass 
V:1
 [B,D]2 [CD]2 D2 | E6 [CF]2 [CG]2 [CA]2 | ([CD]4 [B,G]4) [DB]4 | %3
 [EB]3 [EA] [EA]2 [DB]2 [Cc]2 [A,E]2 | (G4 F2) [DF]2 [FB]3 [FA] | (A4 G2) [EG]2 [Gc]3 [GB] | %6
 B4 A2 [ce]2 [Bd]2 [Ac]2 | [GB]2 [DG]2 E4 F4 | [B,G]6 |] %9
V:2
 x4 D2 | (D4 C2) x6 | x12 | x12 | D6 x6 | E6 x6 | D6 x6 | x4 E4 (D3 C) | x6 |] %9
V:3
 [G,,G,]2 [A,,G,]2 [B,,G,]2 | [C,G,]6 [D,G,]2 [E,G,]2 [F,G,]2 | G,8 [G,,G,]4 | %3
 [C,G,]3 [C,G,] [C,G,]2 [B,,G,]2 [A,,G,]2 [C,G,]2 | (B,4 A,2) [=D,A,]2 [^D,B,]3 [D,B,] | %5
 [E,B,]6 [E,B,]2 [E,C]3 [E,C] | [F,C]6 [D,F,]2 [E,G,]2 [F,A,]2 | [G,B,]2 [B,,D]2 [C,C]4 (B,3 A,) | %8
 [G,,G,]6 |] %9
V:4
 x6 | x12 | G,8 x4 | x12 | ^D,6 x6 | x12 | x12 | x8 D,4 | x6 |] %9

